**kern	**kern	**dynam
*part1	*part1	*part1
*staff2	*staff1	*
*I"Piano	*	*
*clefF4	*clefG2	*
*k[b-e-a-d-]	*k[b-e-a-d-]	*
=1	=1	=1
*	*^	*
4A- 4e- 4g	8ee-L	(4b- 4dd-	.
.	8ff-X	.	.
4r	8ee-	4r	.
.	8gg	.	.
4A- 4e-	8ccc^	4dd-	.
.	8ggJ	.	.
=	=	=	=
4A- 4e-	8bb-^L	4cc	.
.	8aa-	.	.
4r	8gg	4r	.
.	8aa-	.	.
8DnL	(8ff	4a-) 4bn	.
8FJ	8ddnJ	.	.
=	=	=	=
*^	*	*	*
2E-	2ryy	8ff^L	4a- 4cc	.
.	.	8ee-	.	.
.	.	8ddn	4r	.
.	.	8ee-	.	.
4E-	8B-L	8dd-X	4g	.
.	8d-J	8b-J	.	.
*	*	*v	*v	*
=	=	=	=
(8A-L	4c	4a-)	.
8G	.	.	.
8A-	2ryy	4r	.
8B-	.	.	.
8G-X	.	4r	.
8E-J)	.	.	.
*v	*v	*	*
=	=	=
*tremolo	*	*
*	*tremolo	*
8D- 8A- 8d-L	8f 8a- 8dd- 8ffL	mf
8D- 8A- 8d-	8f 8a- 8dd- 8ff	.
8D- 8A- 8d-	8f 8a- 8dd- 8ff	.
8D- 8A- 8d-	8f 8a- 8dd- 8ff	.
8D- 8A- 8d-	8f 8a- 8dd- 8ff	.
8D- 8A- 8d-J	8f 8a- 8dd- 8ffJ	.
=	=	=
8D- 8A- 8d-L	8e- 8g-X 8cc 8ee-L	.
8D- 8A- 8d-	8e- 8g-X 8cc 8ee-	.
8D- 8A- 8d-	8e- 8g-X 8cc 8ee-	.
8D- 8A- 8d-	8e- 8g-X 8cc 8ee-	.
8D- 8A- 8d-	8e- 8g-X 8cc 8ee-	.
8D- 8A- 8d-J	8e- 8g-X 8cc 8ee-J	.
*Xtremolo	*	*
=	=	=
4D- 4d-	8f 8dd-L	.
.	8f 8dd-	.
4r	8f 8dd-	.
.	8f 8dd-	.
8D-L 8d-	8f 8dd-	.
8CJ 8c	8f 8dd-J	.
*	*Xtremolo	*
=	=	=
*-	*-	*-
!!!system-decoration: {(s1,s2)}
